X:1
T: The Old Salt Strathspey
C:
R:Strathspey
Q: 128
K:Em
M:4/4
L:1/16
|:B4|eG3 G3A B4 c3B|A3F D3F A4 B4|eG3 G3A B4 ((3GAB) |c3B cd3 B4 B4|
eG3 G3A B4 c3B|A3F D3F A4 G3F|E3F GE3 D4 G3B|A3G AB3 E4:|
|:B3d|e4 c3d e3f ge3|d3e dB3 G8|c3B A3B c3d c3A|B4 B3G A3B c3d|
e4 c3d e3f ge3|d3e dB3 G8|A3B c3A Be3 E3G|A3G FG3 E4:|
